X:171
T:Admiral Rodney's Triumph. THO5.171
M:6/8
L:1/8
B:Thompson's Complete Collection of 200 Favourite Dances Vol.5
F:https://www.libraryofdance.org/manuals/1780c-Thompson-Compleat-5.pdf
Z:vmp. Peter Dunk 2024
Q:3/8=100
K:A
E|A2A Ace|c2A ABc|ded cBA|B2e E3|
A2A Ace|c2A ABc|ded cBA|{c}BAG A2:|
|:A|c2c cBA|d2B Beg|aba agf|(f2e) (e2d)|
c2c cBA|d2B Beg|aba ecA|B2c A2:|
W:
W:First & 2nd Couple change sides, the same back again ./.
W:Lead down the middle, up again & cast off :/.
W:Allemand with your Partner & back again :/.
W:Right & Left at top

